X: 1
T:Uphold the Right  "Arr. Bill Boxall"
M:C|
L:1/8
Q:80
C:B.C. Niven
S:Hornpipe
K:HP
|: {g}e3/4d/4|
{g}c3/4A/4{gAGAG}A{g}A3/4{d}c/4{g}e3/4A/4|
{g}d3/4f/4a3/4f/4{gef}e{g}c3/4d/4|  !
{g}e3/4c/4{g}A3/4{d}c/4a3/4f/4{g}e3/4c/4|
{g}d3/4f/4{g}e3/4c/4{gBG}B{g}e3/4d/4| |
{g}c3/4A/4{gAGAG}A{g}A3/4{d}c/4{g}e3/4A/4|  !
{g}d3/4f/4a3/4f/4{gef}e{g}c3/4d/4|
{gef}ea3/4f/4{g}e3/4c/4{g}d3/4B/4|
{gcd}c{d}A{GAG}A:| |:  !
{g}c3/4d/4|
{gef}e{A}e3/4c/4{g}A3/4c/4{g}e3/4c/4|
{g}d{c}d3/4B/4{g}G3/4e/4{g}d3/4B/4|  !
{gef}e{A}e3/4c/4{g}A3/4c/4{g}e3/4c/4|
{g}d3/4f/4{g}e3/4c/4{gBG}B{g}c3/4d/4| |
{gef}e{A}e3/4c/4{g}A3/4c/4{g}e3/4c/4|  !
{g}d{c}d3/4B/4{g}G3/4e/4{g}d3/4B/4|
{gef}ea3/4f/4{g}e3/4c/4{g}d3/4B/4|
{gcd}c{d}A{GAG}A:| |:  !
{g}e3/4d/4|
{g}c2{gef}e3/4c/4{g}A3/4c/4|
{g}dg-((3g3/4e/4{g}f/2e/2d/2)|  !
{g}c2{gef}e3/4c/4{g}A3/4c/4|
{g}d3/4f/4{g}e3/4c/4{gBG}B{g}e3/4d/4| |
{g}c2{gef}e3/4c/4{g}A3/4c/4|  !
{g}dg-((3g3/4e/4{g}f/2e/2d/2)|
{gef}ea3/4f/4{g}e3/4c/4{g}d3/4B/4|
{gcd}c{d}A{GAG}A:| |:  !
{g}c3/4d/4|
{gef}ea3/4f/4{g}e3/4c/4{g}A3/4c/4|
{gde}dg3/4d/4{g}B3/4A/4{g}G3/4d/4|  !
{gef}ea3/4f/4{g}e3/4c/4{g}A3/4c/4|
{g}d{c}d3/4B/4{g}G3/4e/4{g}d3/4B/4| |
|1 {gef}ea3/4f/4{g}e3/4c/4{g}A3/4c/4|  !
{gde}dg3/4d/4{g}B3/4A/4{g}G3/4d/4|
{gef}ea3/4f/4{g}e3/4c/4{g}d3/4B/4|
{gcd}c{d}A{GAG}A:|  !
